packages/symbols/svgs/solid/gear-solid.svg

<svg width="16" height="16" viewBox="0 0 16 16" fill="none" xmlns="http://www.w3.org/2000/svg">
<g clip-path="url(#clip0_923_2968)">
<path d="M15.621 7.015L13.821 6.564C13.6759 5.97768 13.4429 5.41667 13.13 4.9L14.086 3.307C14.1434 3.21138 14.1673 3.0993 14.1537 2.98859C14.1401 2.87788 14.0899 2.77488 14.011 2.696L13.3 1.989C13.2211 1.91014 13.1181 1.85991 13.0074 1.84632C12.8967 1.83273 12.7846 1.85656 12.689 1.914L11.1 2.87C10.5833 2.55743 10.0223 2.32481 9.436 2.18L8.985 0.379C8.95801 0.270784 8.89561 0.174699 8.80773 0.106025C8.71985 0.0373507 8.61153 3.08115e-05 8.5 0L7.5 0C7.38847 3.08115e-05 7.28015 0.0373507 7.19227 0.106025C7.10439 0.174699 7.04199 0.270784 7.015 0.379L6.564 2.179C5.97768 2.32415 5.41667 2.55711 4.9 2.87L3.307 1.914C3.21138 1.85656 3.0993 1.83273 2.98859 1.84632C2.87788 1.85991 2.77488 1.91014 2.696 1.989L1.989 2.7C1.91014 2.77888 1.85991 2.88188 1.84632 2.99259C1.83273 3.1033 1.85656 3.21538 1.914 3.311L2.87 4.9C2.55743 5.41671 2.32481 5.97772 2.18 6.564L0.38 7.015C0.271598 7.0418 0.175288 7.10412 0.106419 7.19201C0.0375496 7.27991 8.63129e-05 7.38833 0 7.5L0 8.5C3.08115e-05 8.61153 0.0373507 8.71985 0.106025 8.80773C0.174699 8.89561 0.270784 8.95801 0.379 8.985L2.179 9.436C2.32415 10.0223 2.55711 10.5833 2.87 11.1L1.914 12.693C1.85656 12.7886 1.83273 12.9007 1.84632 13.0114C1.85991 13.1221 1.91014 13.2251 1.989 13.304L2.696 14.011C2.77488 14.0899 2.87788 14.1401 2.98859 14.1537C3.0993 14.1673 3.21138 14.1434 3.307 14.086L4.9 13.13C5.41671 13.4426 5.97772 13.6752 6.564 13.82L7.015 15.62C7.0418 15.7284 7.10412 15.8247 7.19201 15.8936C7.27991 15.9625 7.38833 15.9999 7.5 16H8.5C8.61153 16 8.71985 15.9626 8.80773 15.894C8.89561 15.8253 8.95801 15.7292 8.985 15.621L9.436 13.821C10.0223 13.6762 10.5833 13.4436 11.1 13.131L12.693 14.087C12.7886 14.1444 12.9007 14.1683 13.0114 14.1547C13.1221 14.1411 13.2251 14.0909 13.304 14.012L14.011 13.305C14.0899 13.2261 14.1401 13.1231 14.1537 13.0124C14.1673 12.9017 14.1434 12.7896 14.086 12.694L13.13 11.1C13.4426 10.5833 13.6752 10.0223 13.82 9.436L15.62 8.985C15.7284 8.9582 15.8247 8.89588 15.8936 8.80799C15.9625 8.72009 15.9999 8.61166 16 8.5V7.5C16 7.38847 15.9626 7.28015 15.894 7.19227C15.8253 7.10439 15.7292 7.04199 15.621 7.015ZM8 11C7.40666 11 6.82664 10.8241 6.33329 10.4944C5.83994 10.1648 5.45542 9.69623 5.22836 9.14805C5.0013 8.59987 4.94189 7.99667 5.05764 7.41473C5.1734 6.83279 5.45912 6.29824 5.87868 5.87868C6.29824 5.45912 6.83279 5.1734 7.41473 5.05764C7.99667 4.94189 8.59987 5.0013 9.14805 5.22836C9.69623 5.45542 10.1648 5.83994 10.4944 6.33329C10.8241 6.82664 11 7.40666 11 8C11 8.79565 10.6839 9.55871 10.1213 10.1213C9.55871 10.6839 8.79565 11 8 11Z" fill="black"/>
</g>
<defs>
<clipPath id="clip0_923_2968">
<rect width="16" height="16" fill="white"/>
</clipPath>
</defs>
</svg>

<svg width="16" height="16" viewBox="0 0 16 16" xmlns="http://www.w3.org/2000/svg"><g clip-path="url(#a)"><path d="m15.621 7.015-1.8-.451A5.99 5.99 0 0 0 13.13 4.9l.956-1.593a.5.5 0 0 0-.075-.611l-.711-.707a.5.5 0 0 0-.611-.075L11.1 2.87a5.99 5.99 0 0 0-1.664-.69L8.985.379A.5.5 0 0 0 8.5 0h-1a.5.5 0 0 0-.485.379l-.451 1.8A5.992 5.992 0 0 0 4.9 2.87l-1.593-.956a.5.5 0 0 0-.611.075l-.707.711a.5.5 0 0 0-.075.611L2.87 4.9a5.99 5.99 0 0 0-.69 1.664l-1.8.451A.5.5 0 0 0 0 7.5v1a.5.5 0 0 0 .379.485l1.8.451c.145.586.378 1.147.691 1.664l-.956 1.593a.5.5 0 0 0 .075.611l.707.707a.5.5 0 0 0 .611.075L4.9 13.13a5.989 5.989 0 0 0 1.664.69l.451 1.8A.5.5 0 0 0 7.5 16h1a.5.5 0 0 0 .485-.379l.451-1.8a5.988 5.988 0 0 0 1.664-.69l1.593.956a.5.5 0 0 0 .611-.075l.707-.707a.5.5 0 0 0 .075-.611L13.13 11.1a5.988 5.988 0 0 0 .69-1.664l1.8-.451A.5.5 0 0 0 16 8.5v-1a.5.5 0 0 0-.379-.485ZM8 11a3 3 0 1 1 0-6 3 3 0 0 1 0 6Z"/></g><defs><clipPath id="a"><path fill="#fff" d="M0 0h16v16H0z"/></clipPath></defs></svg>
